ui_kit/lib/assets/icons/mic_state_on.svg

<svg width="24" height="24" viewBox="0 0 24 24" fill="none" xmlns="http://www.w3.org/2000/svg">
<path fill-rule="evenodd" clip-rule="evenodd" d="M9.30962 2.97631C9.93474 2.35119 10.7826 2 11.6666 2C12.5507 2 13.3985 2.35119 14.0237 2.97631C14.6488 3.60143 15 4.44928 15 5.33333V12C15 12.8841 14.6488 13.7319 14.0237 14.357C13.3985 14.9821 12.5507 15.3333 11.6666 15.3333C10.7826 15.3333 9.93474 14.9821 9.30962 14.357C8.6845 13.7319 8.33331 12.8841 8.33331 12V5.33333C8.33331 4.44928 8.6845 3.60143 9.30962 2.97631ZM11.6666 3.66667C11.2246 3.66667 10.8007 3.84226 10.4881 4.15482C10.1756 4.46738 9.99998 4.89131 9.99998 5.33333V12C9.99998 12.442 10.1756 12.866 10.4881 13.1785C10.8007 13.4911 11.2246 13.6667 11.6666 13.6667C12.1087 13.6667 12.5326 13.4911 12.8452 13.1785C13.1577 12.866 13.3333 12.442 13.3333 12V5.33333C13.3333 4.89131 13.1577 4.46738 12.8452 4.15482C12.5326 3.84226 12.1087 3.66667 11.6666 3.66667Z" fill="white"/>
<path fill-rule="evenodd" clip-rule="evenodd" d="M5.83333 9.5C6.29357 9.5 6.66667 9.8731 6.66667 10.3333V12C6.66667 13.3261 7.19345 14.5979 8.13113 15.5355C9.06881 16.4732 10.3406 17 11.6667 17C12.9927 17 14.2645 16.4732 15.2022 15.5355C16.1399 14.5979 16.6667 13.3261 16.6667 12V10.3333C16.6667 9.8731 17.0398 9.5 17.5 9.5C17.9602 9.5 18.3333 9.8731 18.3333 10.3333V12C18.3333 13.7681 17.631 15.4638 16.3807 16.714C15.1305 17.9643 13.4348 18.6667 11.6667 18.6667C9.89856 18.6667 8.20286 17.9643 6.95262 16.714C5.70238 15.4638 5 13.7681 5 12V10.3333C5 9.8731 5.3731 9.5 5.83333 9.5Z" fill="white"/>
<path fill-rule="evenodd" clip-rule="evenodd" d="M11.6666 17C12.1269 17 12.5 17.3731 12.5 17.8333V21.1667C12.5 21.6269 12.1269 22 11.6666 22C11.2064 22 10.8333 21.6269 10.8333 21.1667V17.8333C10.8333 17.3731 11.2064 17 11.6666 17Z" fill="white"/>
<path fill-rule="evenodd" clip-rule="evenodd" d="M7.5 21.1666C7.5 20.7063 7.8731 20.3333 8.33333 20.3333H15C15.4602 20.3333 15.8333 20.7063 15.8333 21.1666C15.8333 21.6268 15.4602 21.9999 15 21.9999H8.33333C7.8731 21.9999 7.5 21.6268 7.5 21.1666Z" fill="white"/>
</svg>

<svg xmlns="http://www.w3.org/2000/svg" width="24" height="24" fill="none" viewBox="0 0 24 24"><path fill="#fff" fill-rule="evenodd" d="M9.31 2.976A3.333 3.333 0 0 1 15 5.333V12a3.333 3.333 0 1 1-6.667 0V5.333c0-.884.351-1.732.977-2.357Zm2.357.69A1.667 1.667 0 0 0 10 5.334V12a1.667 1.667 0 0 0 3.333 0V5.333a1.667 1.667 0 0 0-1.666-1.666Z" clip-rule="evenodd"/><path fill="#fff" fill-rule="evenodd" d="M5.833 9.5c.46 0 .834.373.834.833V12a5 5 0 1 0 10 0v-1.667a.833.833 0 0 1 1.666 0V12A6.666 6.666 0 1 1 5 12v-1.667c0-.46.373-.833.833-.833Z" clip-rule="evenodd"/><path fill="#fff" fill-rule="evenodd" d="M11.667 17c.46 0 .833.373.833.833v3.334a.833.833 0 0 1-1.667 0v-3.334c0-.46.373-.833.834-.833Z" clip-rule="evenodd"/><path fill="#fff" fill-rule="evenodd" d="M7.5 21.167c0-.46.373-.834.833-.834H15A.833.833 0 1 1 15 22H8.333a.833.833 0 0 1-.833-.833Z" clip-rule="evenodd"/></svg>
